!!!COM: havana-brown
!!!OTL: we-run-the-night
!!!RNB: hooktheoryid: WAQodKaqxDl
**kern	**text
*clefG2	*
*k[]	*
*M4/4	*
=1	=1
2cc	Am
8a	.
8g	.
8g	.
8g	.
=2	=2
2dd	C
4a	.
8g	.
[8g	.
=3	=3
8g]	F
8a	.
8cc	.
8cc	.
4cc	.
4a	.
=4	=4
8cc	F
8cc	.
4cc	.
4a	.
4a	.
=5	=5
2cc	Am
8a	.
8g	.
8g	.
8g	.
=6	=6
2dd	C
4a	.
8g	.
[8g	.
=7	=7
8g]	F
8a	.
8g	.
4g	.
8a	.
4r	.
=8	=8
8r	.
8A	.
8A	.
8G	.
8A	.
8A	.
8A	.
8r	.
*-	*-